TGeo/prim_trd2_z.svg

<svg viewBox="-600 -400 1200 800" width="1200" height="800" xmlns="http://www.w3.org/2000/svg"><path style="fill:rgb(0,0,74)" d="M-188,129l294,236l-173,-503Z"/><path style="fill:rgb(0,0,144)" d="M-67,-138l173,503l98,-85Z"/><path style="fill:rgb(0,0,78)" d="M-188,129l121,-267l-124,-80Z"/><path style="fill:rgb(0,0,151)" d="M-67,-138l271,418l-23,-570Z"/><path style="fill:rgb(0,0,146)" d="M-191,-218l372,-72l-123,-66Z"/><path style="fill:rgb(0,0,153)" d="M-191,-218l124,80l248,-152Z"/></svg>

<svg xmlns="http://www.w3.org/2000/svg" viewBox="-600 -400 1200 800" width="1200" height="800" style="background:rgb(255,255,255)"><path style="fill:rgb(0,0,74)" d="M-188,129L106,365L-67,-138z"/><path style="fill:rgb(0,0,144)" d="M-67,-138L106,365L204,280z"/><path style="fill:rgb(0,0,78)" d="M-188,129L-67,-138L-191,-218z"/><path style="fill:rgb(0,0,151)" d="M-67,-138L204,280L181,-290z"/><path style="fill:rgb(0,0,146)" d="M-191,-218L181,-290L58,-356z"/><path style="fill:rgb(0,0,153)" d="M-191,-218L-67,-138L181,-290z"/></svg>
